X: 3320
M: C
L: 1/8
K: D
(uFE) |\
fedc Bged | (3(cdc) (3(BcB) AGFE |\
fedc Bgec | dcdc d2 :|
|: (fg) |\
a^gaf def=g | afdd d2(ef) |\
gfge cdef | (3(gag) (3(fgf) egfe |\
dfec dDFA | Bged cbag |\
fedc Bgec | dcdc d2 :|


